icon-themes/sifr_svg/cmd/lc_freezepanes.svg

<svg viewBox="0 0 24 24" xmlns="http://www.w3.org/2000/svg"><g fill="#555753"><path d="m4 4v16h5v-12h11v-4z" opacity=".35"/><path d="m2 2v20h20v-20zm2 2h5v3h-5zm7 0h4v3h-4zm5 0h4v3h-4zm-12 5h5v3h-5zm7 0h4v3h-4zm5 0h4v3h-4zm-12 4h5v3h-5zm7 0h4v3h-4zm5 0h4v3h-4zm-12 4h5v3h-5zm7 0h4v3h-4zm5 0h4v3h-4z"/></g></svg>

<svg viewBox="0 0 24 24" xmlns="http://www.w3.org/2000/svg">
  <path
     style="opacity:0.35;fill:#555753"
     d="M 4,4 V 20 H 9 V 8 H 20 V 4 Z"
     />
  <path
     style="fill:#555753"
     d="M 2,2 V 22 H 22 V 2 Z M 4,4 H 9 V 7 H 4 Z m 7,0 h 4 v 3 h -4 z m 5,0 h 4 V 7 H 16 Z M 4,9 h 5 v 3 H 4 Z m 7,0 h 4 v 3 h -4 z m 5,0 h 4 v 3 H 16 Z M 4,13 h 5 v 3 H 4 Z m 7,0 h 4 v 3 h -4 z m 5,0 h 4 v 3 H 16 Z M 4,17 h 5 v 3 H 4 Z m 7,0 h 4 v 3 h -4 z m 5,0 h 4 v 3 h -4 z"
     />
</svg>
